!!!!SEGMENT: pl-kk--kk-i-3--005-006_anonim--officium-de-assumptione-de-bmv-sanctus.krn
!!!cenid: 15xx:575
!!!COM: Anonim
!!!COM-rismid: pe30004985
!!!CDT:
!!!CNT:
!!!OPR: Officium de Assumptione de BMV
!!!OTL: Sanctus
!!!OMV: 006
!!!PDT:
!!!AGN:
!!!SMS-siglum: PL-Kk
!!!SMS-shelfmark: Kk.I.3
!!!SMS-shelfwork: 005-006 M
!!!SMS-variant:
!!!SMS-altvar:
!!!NIFC-rismid: 1001145497
!!!URL-scan: http://repozytorium.nifc.pl/skany/pl-kk-nut--i-3
!!!ONB-nifc: UWAGA: Discantus (brak), Tenor (s. 13r-v, 0185-0186), Bassus (brak). Następna część w Tenorze: Agnus Dei
!!!AIN: 1 alto 1 bass 1 tenor
!!!key:
**kern	**kern	**text	**kern
*part3	*part2	*part2	*part1
*staff3	*staff2	*staff2	*staff1
*I"Bassus	*I"Tenor	*	*I"Discantus
*I'B	*I'T	*	*I'S
*Ibass	*Itenor	*	*Ialto
*ICvox	*ICvox	*	*ICvox
*clefF4	*clefC4	*	*clefC1
*k[]	*k[]	*	*k[]
*d:	*d:	*	*d:
*M2/1	*M2/1	*	*M2/1
*met(C)	*met(C)	*	*met(C)
=1-	=1-	=1-	=1-
!LO:TX:t=P:problem=brak w źródle	!LO:TX:t=P:problem=brak metrum	!	!LO:TX:t=P:problem=brak w źródle
0ryy	1D	San-	0ryy
.	1E	.	.
=2-	=2-	=2-	=2-
*	*lig	*	*
0ryy	1F	.	0ryy
.	1E	.	.
*	*Xlig	*	*
=3-	=3-	=3-	=3-
0ryy	1D	.	0ryy
.	1G	.	.
=4-	=4-	=4-	=4-
0ryy	1G	.	0ryy
.	1F	.	.
=5-	=5-	=5-	=5-
0ryy	1E	.	0ryy
.	1D	.	.
=6-	=6-	=6-	=6-
0ryy	1C	.	0ryy
.	1C	.	.
=7-	=7-	=7-	=7-
0ryy	1D	.	0ryy
.	1E	.	.
=8-	=8-	=8-	=8-
0ryy	1F	.	0ryy
.	1E	.	.
=9-	=9-	=9-	=9-
0ryy	1D	-ctus	0ryy
.	1D	.	.
=10-	=10-	=10-	=10-
*	*custos:D	*	*
0ryy	0Dl	.	0ryy
!	!LO:LB:g=original	!	!
=11-	=11-	=11-	=11-
0ryy	1D	San-	0ryy
.	1A	.	.
=12-	=12-	=12-	=12-
*	*lig	*	*
0ryy	1A	.	0ryy
.	1G	.	.
*	*Xlig	*	*
=13-	=13-	=13-	=13-
0ryy	1A	.	0ryy
.	1B	.	.
=14-	=14-	=14-	=14-
0ryy	1c	.	0ryy
.	1B	.	.
=15-	=15-	=15-	=15-
0ryy	1A	.	0ryy
.	1G	.	.
=16-	=16-	=16-	=16-
0ryy	1F	.	0ryy
*	*lig	*	*
.	1E	.	.
=17-	=17-	=17-	=17-
0ryy	1D	.	0ryy
*	*Xlig	*	*
.	1G	.	.
=18-	=18-	=18-	=18-
0ryy	1G	.	0ryy
.	1A	-ctus	.
=19-	=19-	=19-	=19-
0ryy	1A	.	0ryy
.	1Al	.	.
=20-	=20-	=20-	=20-
0ryy	1D	San-	0ryy
.	1E	.	.
=21-	=21-	=21-	=21-
0ryy	1F	.	0ryy
.	1E	.	.
=22-	=22-	=22-	=22-
*	*custos:G	*	*
0ryy	1D	.	0ryy
!	!LO:LB:g=original	!	!
.	1G	.	.
=23-	=23-	=23-	=23-
0ryy	1G	.	0ryy
.	1F	.	.
=24-	=24-	=24-	=24-
0ryy	1E	.	0ryy
.	1D	.	.
=25-	=25-	=25-	=25-
0ryy	1C	.	0ryy
.	1C	.	.
=26-	=26-	=26-	=26-
0ryy	1D	.	0ryy
.	1E	.	.
=27-	=27-	=27-	=27-
0ryy	1F	.	0ryy
*	*lig	*	*
.	1E	-ctus	.
=28-	=28-	=28-	=28-
0ryy	1D	.	0ryy
*	*Xlig	*	*
.	1D	do-	.
=29-	=29-	=29-	=29-
0ryy	1D	-mi-	0ryy
.	1A	.	.
=30-	=30-	=30-	=30-
0ryy	1A	-nus	0ryy
*	*lig	*	*
.	1A	de-	.
=31-	=31-	=31-	=31-
0ryy	1G	.	0ryy
.	1E	.	.
*	*Xlig	*	*
=32-	=32-	=32-	=32-
1r	1F	.	1r
*	*lig	*	*
1r	1E	-us	1r
=33-	=33-	=33-	=33-
0ryy	1D	.	0ryy
*	*Xlig	*	*
*	*custos:G	*	*
.	1G	Sab-	.
!	!LO:PB:g=original	!	!
=34-	=34-	=34-	=34-
*	*lig	*	*
0ryy	1G	-ba-	0ryy
.	1F	.	.
*	*Xlig	*	*
=35-	=35-	=35-	=35-
0ryy	1G	.	0ryy
.	1A	-oth	.
=36-	=36-	=36-	=36-
0ryy	1A	.	0ryy
.	1Al	.	.
=37-	=37-	=37-	=37-
0ryy	1C	ple-	0ryy
*	*lig	*	*
.	1E	-ni	.
=38-	=38-	=38-	=38-
0ryy	1D	.	0ryy
*	*Xlig	*	*
.	1G	su(n)t	.
=39-	=39-	=39-	=39-
!	!LO:SIC:v:l:s=cae-	!	!
0ryy	1G	ce-	0ryy
.	1A	.	.
=40-	=40-	=40-	=40-
0ryy	1A	-li	0ryy
.	1A	et	.
=41-	=41-	=41-	=41-
0ryy	1B	.	0ryy
*	*lig	*	*
.	1c	ter-	.
=42-	=42-	=42-	=42-
1r	1B	.	1r
*	*Xlig	*	*
1r	1A	.	1r
=43-	=43-	=43-	=43-
0ryy	1A	.	0ryy
*	*custos:d	*	*
.	1G	-ra	.
!	!LO:LB:g=original	!	!
=44-	=44-	=44-	=44-
*	*lig	*	*
0ryy	1d	glo-	0ryy
.	1c	.	.
*	*Xlig	*	*
=45-	=45-	=45-	=45-
0ryy	1d	-ri-	0ryy
.	1e	.	.
=46-	=46-	=46-	=46-
*	*lig	*	*
0ryy	1c	-a	0ryy
.	1B	.	.
=47-	=47-	=47-	=47-
0ryy	1A	.	0ryy
*	*Xlig	*	*
.	1G	tu-	.
=48-	=48-	=48-	=48-
0ryy	1A	.	0ryy
.	1A	-a	.
=49-	=49-	=49-	=49-
0ryy	1A	.	0ryy
.	1Al	.	.
=50-	=50-	=50-	=50-
*	*lig	*	*
0ryy	1A	O-	0ryy
.	1G	.	.
=51-	=51-	=51-	=51-
0ryy	1E	.	0ryy
*	*Xlig	*	*
.	1F	.	.
=52-	=52-	=52-	=52-
*	*lig	*	*
0ryy	1E	.	0ryy
.	1D	.	.
*	*Xlig	*	*
=53-	=53-	=53-	=53-
0ryy	1G	.	0ryy
.	1A	.	.
=54-	=54-	=54-	=54-
0ryy	1G	-san-	0ryy
.	1A	.	.
=55-	=55-	=55-	=55-
*	*custos:A	*	*
0ryy	1A	-na	0ryy
!	!LO:LB:g=original	!	!
.	1A	in	.
=56-	=56-	=56-	=56-
*	*lig	*	*
0ryy	1A	ex-	0ryy
.	1G	.	.
=57-	=57-	=57-	=57-
0ryy	1E	.	0ryy
*	*Xlig	*	*
.	1F	.	.
=58-	=58-	=58-	=58-
0ryy	1E	.	0ryy
.	1D	.	.
=59-	=59-	=59-	=59-
0ryy	1C	.	0ryy
!	!LO:SIC:v:l:s=cel-	!	!
.	1D	-el-	.
=60-	=60-	=60-	=60-
0ryy	1E	.	0ryy
.	1F	.	.
=61-	=61-	=61-	=61-
*	*lig	*	*
0ryy	1E	-sis	0ryy
.	1D	.	.
*	*Xlig	*	*
=62-	=62-	=62-	=62-
0ryy	1D	.	0ryy
.	1Dl	.	.
=63-	=63-	=63-	=63-
0ryy	1C	Be-	0ryy
*	*lig	*	*
.	1E	ne-	.
=64-	=64-	=64-	=64-
0ryy	1D	.	0ryy
*	*Xlig	*	*
.	1G	-dic-	.
=65-	=65-	=65-	=65-
0ryy	1G	-tus	0ryy
.	1A	.	.
=66-	=66-	=66-	=66-
*	*custos:G	*	*
0ryy	1A	qui	0ryy
!	!LO:LB:g=original	!	!
.	1G	ve-	.
=67-	=67-	=67-	=67-
0ryy	1A	.	0ryy
.	1A	-nit	.
=68-	=68-	=68-	=68-
0ryy	1A	in	0ryy
.	1d	.	.
=69-	=69-	=69-	=69-
0ryy	1d	no-	0ryy
*	*lig	*	*
.	1c	-mi-	.
=70-	=70-	=70-	=70-
0ryy	1B	.	0ryy
*	*Xlig	*	*
.	1G	-ne	.
=71-	=71-	=71-	=71-
0ryy	1A	.	0ryy
*	*lig	*	*
.	1A	do-	.
=72-	=72-	=72-	=72-
0ryy	1G	.	0ryy
.	1E	.	.
*	*Xlig	*	*
=73-	=73-	=73-	=73-
0ryy	1F	.	0ryy
*	*lig	*	*
.	1E	.	.
=74-	=74-	=74-	=74-
0ryy	1D	.	0ryy
*	*Xlig	*	*
.	1G	.	.
=75-	=75-	=75-	=75-
0ryy	1A	.	0ryy
.	1G	-mi-	.
=76-	=76-	=76-	=76-
0ryy	1A	.	0ryy
.	1A	-ni	.
=77-	=77-	=77-	=77-
0ryy	1A	.	0ryy
!	!LO:TX:b:t=Osan[na ut]\nsup(ra)	!	!
.	1Al	.	.
==	==	==	==
*-	*-	*-	*-
!!!system-decoration: [(s1,s2,s3)]
!!!ENC: Filip Voros
!!!END: 2021-12-25
!!!RDF**kern: l = terminal long
!!!EED: Andrzej Borzym
!!!EEV: 2021-12-29
